X: 1
T: By the Hush
T: Paddy's Lamentation
O: 19th-century Irish-American
R: air, march
S: PDF from Darlene Wigton 2019-3-2
Z: 2019 John Chambers <jc:trillian.mit.edu>
L: 1/8
M: 4/4
K: Bm
D2E2 |\
"Bm"F3F "G"G2E2 | "Bm"F4 F2F2 | "A"E3F E2C2 | "F#m"A,6 A,2 |\
"Bm"B,B,3 "D"D2E2 | "Bm"FB3 B2c2 | B4- BAFE | "F#"F4 D2E2 |
"Bm"F3F "G"G2E2 | "Bm"F4 F2F2 | "A"E3F E2C2 | "F#m"A,4 B,2C2 |\
"Bm"DD3 C2B,2 | "A"C2F2 F2E2 | "Bm"C2 B,6- | "G"B,4 z4 ||
"Bm"B,4 B,4 | "G"B8 | "D"F2 E4 "E"F^G | "A"A6 B,B, |\
"Bm"B,B,3 "E"^D2E2 | "Bm"F2B2 B2c2 | B4- BAFE | "F#"F4 D2E2 |
"Bm"FF3 "G"G2E2 | "Bm"F4 F2D2 | "A"E2F2 EC3 | "F#m"A,4 B,2C2 |\
"Bm"DD3 C2B,2 | "A"C2F2 F2E2 | "G"CB,7- | B,4 |]
%%vskip 3	% To prevent clipping of that final tie

%%sep 1 1 500

